svg/part/coat_line.svg

<?xml version="1.0" encoding="UTF-8"?>
<svg width="24px" height="24px" viewBox="0 0 24 24" version="1.1" xmlns="http://www.w3.org/2000/svg" xmlns:xlink="http://www.w3.org/1999/xlink">
    <title>coat_line</title>
    <g id="Icon" stroke="none" stroke-width="1" fill="none" fill-rule="evenodd">
        <g id="Part" transform="translate(-576.000000, 0.000000)">
            <g id="coat_line" transform="translate(576.000000, 0.000000)">
                <path d="M24,0 L24,24 L0,24 L0,0 L24,0 Z M12.5934901,23.257841 L12.5819402,23.2595131 L12.5108777,23.2950439 L12.4918791,23.2987469 L12.4918791,23.2987469 L12.4767152,23.2950439 L12.4056548,23.2595131 C12.3958229,23.2563662 12.3870493,23.2590235 12.3821421,23.2649074 L12.3780323,23.275831 L12.360941,23.7031097 L12.3658947,23.7234994 L12.3769048,23.7357139 L12.4804777,23.8096931 L12.4953491,23.8136134 L12.4953491,23.8136134 L12.5071152,23.8096931 L12.6106902,23.7357139 L12.6232938,23.7196733 L12.6232938,23.7196733 L12.6266527,23.7031097 L12.609561,23.275831 C12.6075724,23.2657013 12.6010112,23.2592993 12.5934901,23.257841 L12.5934901,23.257841 Z M12.8583906,23.1452862 L12.8445485,23.1473072 L12.6598443,23.2396597 L12.6498822,23.2499052 L12.6498822,23.2499052 L12.6471943,23.2611114 L12.6650943,23.6906389 L12.6699349,23.7034178 L12.6699349,23.7034178 L12.678386,23.7104931 L12.8793402,23.8032389 C12.8914285,23.8068999 12.9022333,23.8029875 12.9078286,23.7952264 L12.9118235,23.7811639 L12.8776777,23.1665331 C12.8752882,23.1545897 12.8674102,23.1470016 12.8583906,23.1452862 L12.8583906,23.1452862 Z M12.1430473,23.1473072 C12.1332178,23.1423925 12.1221763,23.1452606 12.1156365,23.1525954 L12.1099173,23.1665331 L12.0757714,23.7811639 C12.0751323,23.7926639 12.0828099,23.8018602 12.0926481,23.8045676 L12.108256,23.8032389 L12.3092106,23.7104931 L12.3186497,23.7024347 L12.3186497,23.7024347 L12.3225043,23.6906389 L12.340401,23.2611114 L12.337245,23.2485176 L12.337245,23.2485176 L12.3277531,23.2396597 L12.1430473,23.1473072 Z" id="MingCute" fill-rule="nonzero"></path>
                <path d="M6.26825,18.7522 L3.30506,17.2706 C2.43536,16.8357 2.00443,15.8384 2.28384,14.907 L4.54553,7.36805 C4.94168,6.04755 5.86549,4.94921 7.09859,4.33266 L9.13047,3.31672 C9.54704,3.10844 10.0064,3 10.4721,3 L13.5278,3 C13.9936,3 14.4529,3.10844 14.8695,3.31672 L16.9014,4.33266 C18.1345,4.94921 19.0583,6.04755 19.4544,7.36805 L21.7161,14.907 C21.9955,15.8384 21.5646,16.8357 20.6949,17.2706 L17.7317,18.7522 C17.3997,20.0358 16.2335,21 14.8264,21 L9.17357,21 C7.76647,21 6.60029,20.0358 6.26825,18.7522 Z M10.0249,5.10557 C10.1638,5.03615 10.3169,5 10.4721,5 L13.5278,5 C13.6831,5 13.8362,5.03615 13.9751,5.10557 L14.1628,5.19946 L12,8.98444 L9.83713,5.19946 L10.0249,5.10557 Z M13,11.2656 L15.9544,6.09526 L16.0069,6.12151 C16.7468,6.49144 17.3011,7.15045 17.5388,7.94275 L19.8005,15.4817 L17.7139,16.525 L17.4965,13.917 C17.4507,13.3666 16.9673,12.9576 16.4169,13.0035 C15.8666,13.0493 15.4576,13.5327 15.5034,14.083 L15.8229,17.917 C15.8715,18.5 15.4114,19 14.8264,19 L13,19 L13,11.2656 Z M11,11.2656 L8.04552,6.09526 L7.99302,6.12151 C7.25316,6.49144 6.69887,7.15045 6.46118,7.94275 L4.19949,15.4817 L6.28609,16.525 L6.50343,13.917 C6.54929,13.3666 7.03264,12.9576 7.58302,13.0035 C8.1334,13.0493 8.54239,13.5327 8.49652,14.083 L8.17703,17.917 C8.12844,18.5 8.58853,19 9.17357,19 L11,19 L11,11.2656 Z" id="形状" fill="#09244B"></path>
            </g>
        </g>
    </g>
</svg>

<svg xmlns="http://www.w3.org/2000/svg" width="24" height="24"><g fill="none" fill-rule="evenodd"><path d="M24 0v24H0V0h24ZM12.593 23.258l-.011.002-.071.035-.02.004-.014-.004-.071-.035c-.01-.004-.019-.001-.024.005l-.004.01-.017.428.005.02.01.013.104.074.015.004.012-.004.104-.074.012-.016.004-.017-.017-.427c-.002-.01-.009-.017-.017-.018Zm.265-.113-.013.002-.185.093-.01.01-.003.011.018.43.005.012.008.007.201.093c.012.004.023 0 .029-.008l.004-.014-.034-.614c-.003-.012-.01-.02-.02-.022Zm-.715.002a.023.023 0 0 0-.027.006l-.006.014-.034.614c0 .012.007.02.017.024l.015-.002.201-.093.01-.008.004-.011.017-.43-.003-.012-.01-.01-.184-.092Z"/><path fill="#09244B" d="m6.268 18.752-2.963-1.481a2 2 0 0 1-1.021-2.364l2.262-7.539a5 5 0 0 1 2.553-3.035L9.13 3.317A3 3 0 0 1 10.472 3h3.056a3 3 0 0 1 1.342.317L16.9 4.333a5 5 0 0 1 2.553 3.035l2.262 7.539a2 2 0 0 1-1.021 2.364l-2.963 1.481A3.002 3.002 0 0 1 14.826 21H9.174a3.002 3.002 0 0 1-2.906-2.248Zm3.757-13.646A1 1 0 0 1 10.472 5h3.056a1 1 0 0 1 .447.106l.188.093L12 8.984 9.837 5.2l.188-.093ZM13 11.266l2.954-5.17.053.026a3 3 0 0 1 1.532 1.82l2.261 7.54-2.086 1.043-.217-2.608a1 1 0 1 0-1.994.166l.32 3.834A1 1 0 0 1 14.826 19H13v-7.734Zm-2 0-2.954-5.17-.053.026a3 3 0 0 0-1.532 1.82L4.2 15.483l2.087 1.043.217-2.608a1 1 0 1 1 1.994.166l-.32 3.834A1 1 0 0 0 9.174 19H11v-7.734Z"/></g></svg>
